SharedPackages/Infrastructure/DesignResourcesKitIcons/Sources/DesignResourcesKitIcons/DesignSystemImages.xcassets/Color/24px/Bookmark-Color-24.imageset/Bookmark-Color-24.svg

<svg width="24" height="24" viewBox="0 0 24 24" fill="none" xmlns="http://www.w3.org/2000/svg">
<path d="M14.4062 2.625H9.59375C7.2638 2.625 5.375 4.5138 5.375 6.84375V19.1322C5.375 20.748 7.11727 21.7638 8.52345 20.9679L10.9609 19.5882C11.6056 19.2233 12.3944 19.2233 13.0391 19.5882L15.4766 20.9679C16.8827 21.7638 18.625 20.748 18.625 19.1322V6.84375C18.625 4.5138 16.7362 2.625 14.4062 2.625Z" fill="#4397E0"/>
<path d="M10.6984 19.1207C11.5447 18.6383 12.5838 18.6425 13.4261 19.1318L15.77 20.4935L15.8165 20.5195C16.798 21.046 18 20.3366 18 19.2101V6.84375C18 4.85898 16.391 3.25 14.4062 3.25H9.59375C7.60898 3.25 6 4.85898 6 6.84375V19.2444C6 20.3834 7.22993 21.098 8.21948 20.5339L10.6984 19.1207ZM19.25 19.2101C19.25 21.2853 17.0358 22.5922 15.2278 21.6223L15.1421 21.5743L12.7982 20.2128C12.3409 19.9471 11.7768 19.9447 11.3174 20.2067L8.83862 21.6199C7.01575 22.6591 4.75 21.3427 4.75 19.2444V6.84375C4.75 4.16862 6.91862 2 9.59375 2H14.4062C17.0814 2 19.25 4.16862 19.25 6.84375V19.2101Z" fill="#045EB2"/>
</svg>

<svg fill="none" viewBox="0 0 24 24" xmlns="http://www.w3.org/2000/svg">
  <path fill="url(#Bookmark-Color-24_svg__a)" d="M14.406 2.625H9.594a4.219 4.219 0 0 0-4.219 4.219v12.288c0 1.616 1.742 2.632 3.148 1.836l2.438-1.38a2.11 2.11 0 0 1 2.078 0l2.438 1.38c1.406.796 3.148-.22 3.148-1.836V6.844a4.219 4.219 0 0 0-4.219-4.219Z"/>
  <path fill="url(#Bookmark-Color-24_svg__b)" d="M10.698 19.12a2.735 2.735 0 0 1 2.728.012l2.344 1.361.046.027A1.484 1.484 0 0 0 18 19.21V6.844a3.594 3.594 0 0 0-3.594-3.594H9.594A3.594 3.594 0 0 0 6 6.844v12.4a1.484 1.484 0 0 0 2.22 1.29l2.478-1.413Zm8.552.09c0 2.075-2.214 3.382-4.022 2.412l-.086-.048-2.344-1.361a1.484 1.484 0 0 0-1.48-.006l-2.48 1.413c-1.822 1.04-4.088-.277-4.088-2.376v-12.4A4.844 4.844 0 0 1 9.594 2h4.812a4.844 4.844 0 0 1 4.844 4.844V19.21Z"/>
  <defs>
    <linearGradient id="Bookmark-Color-24_svg__a" x1="12" x2="12" y1="2.625" y2="23.25" gradientUnits="userSpaceOnUse">
      <stop stop-color="#8FABF9"/>
      <stop offset="1" stop-color="#7295F6"/>
    </linearGradient>
    <linearGradient id="Bookmark-Color-24_svg__b" x1="12" x2="12" y1="2.625" y2="23.25" gradientUnits="userSpaceOnUse">
      <stop stop-color="#3969EF"/>
      <stop offset="1" stop-color="#1E42A4"/>
    </linearGradient>
  </defs>
</svg>
